X:1
T:Praying Always
T:Praying Always
T:Philip Paul Bliss, 1871
T:Public Domain Courtesy of the Cyber Hymnal™
C:Philip Paul Bliss, 1871
Z:Public Domain
Z:Courtesy of the Cyber Hymnal™
%%score 1 2
L:1/8
Q:1/4=95
M:2/4
K:A
V:1 treble 
V:2 bass 
V:1
 cE FE | cE FE | EF GA | Bc B2 | cE FE | cE FE | EF GA | Bc A2 | [DF][DF] [DF][DF] | %9
 [DF][DF] [FA]2 | [EG][EG] [EG][CA] | [DB][Ec] [CA]2 |] %12
V:2
 A,,4 | A,,4 | E,4 | E,4 | A,,4 | A,,4 | E,4 | E,2 A,,2 | D,4 | D,4 | E,4 | E,2 A,,2 |] %12

